img/icon_mail.svg

<svg width="24" height="24" viewBox="0 0 24 24" fill="none" xmlns="http://www.w3.org/2000/svg">
    <path d="M21.75 3.75H2.25C1.83516 3.75 1.5 4.08516 1.5 4.5V19.5C1.5 19.9148 1.83516 20.25 2.25 20.25H21.75C22.1648 20.25 22.5 19.9148 22.5 19.5V4.5C22.5 4.08516 22.1648 3.75 21.75 3.75ZM20.8125 6.34687V18.5625H3.1875V6.34687L2.54063 5.84297L3.46172 4.65938L4.46484 5.43984H19.5375L20.5406 4.65938L21.4617 5.84297L20.8125 6.34687ZM19.5375 5.4375L12 11.2969L4.4625 5.4375L3.45938 4.65703L2.53828 5.84062L3.18516 6.34453L11.1914 12.5695C11.4217 12.7484 11.7049 12.8455 11.9965 12.8455C12.2881 12.8455 12.5713 12.7484 12.8016 12.5695L20.8125 6.34687L21.4594 5.84297L20.5383 4.65938L19.5375 5.4375Z"
          fill="#CE282E"/>
</svg>

<svg width="24" height="24" fill="none" xmlns="http://www.w3.org/2000/svg"><path d="M21.75 3.75H2.25a.75.75 0 00-.75.75v15c0 .415.335.75.75.75h19.5a.75.75 0 00.75-.75v-15a.75.75 0 00-.75-.75zm-.938 2.597v12.216H3.188V6.347l-.646-.504.92-1.184 1.004.78h15.073l1.003-.78.92 1.184-.648.504zm-1.274-.91L12 11.297l-7.537-5.86-1.004-.78-.92 1.184.646.504 8.006 6.224a1.312 1.312 0 001.61 0l8.011-6.222.647-.504-.92-1.184-1.002.779z" fill="#CE282E"/></svg>
